archdroid-icon-theme/Archdroid-Lime/actions/scalable/color-select.svg

<?xml version="1.0" encoding="UTF-8" standalone="no"?>
<svg
   xmlns:dc="http://purl.org/dc/elements/1.1/"
   xmlns:cc="http://creativecommons.org/ns#"
   xmlns:rdf="http://www.w3.org/1999/02/22-rdf-syntax-ns#"
   xmlns:svg="http://www.w3.org/2000/svg"
   xmlns="http://www.w3.org/2000/svg"
   xmlns:sodipodi="http://sodipodi.sourceforge.net/DTD/sodipodi-0.dtd"
   xmlns:inkscape="http://www.inkscape.org/namespaces/inkscape"
   fill="#CDDC39"
   width="48"
   height="48"
   viewBox="0 0 48 48"
   id="svg2"
   version="1.1"
   inkscape:version="0.91 r13725"
   sodipodi:docname="color-select.svg">
  <metadata
     id="metadata10">
    <rdf:RDF>
      <cc:Work
         rdf:about="">
        <dc:format>image/svg+xml</dc:format>
        <dc:type
           rdf:resource="http://purl.org/dc/dcmitype/StillImage" />
        <dc:title></dc:title>
      </cc:Work>
    </rdf:RDF>
  </metadata>
  <defs
     id="defs8" />
  <sodipodi:namedview
     pagecolor="#ffffff"
     bordercolor="#666666"
     borderopacity="1"
     objecttolerance="10"
     gridtolerance="10"
     guidetolerance="10"
     inkscape:pageopacity="0"
     inkscape:pageshadow="2"
     inkscape:window-width="1366"
     inkscape:window-height="713"
     id="namedview6"
     showgrid="false"
     inkscape:snap-bbox="true"
     inkscape:snap-page="true"
     inkscape:bbox-nodes="true"
     inkscape:zoom="11.02408854166667"
     inkscape:cx="1.053033408397233"
     inkscape:cy="17.62693981473523"
     inkscape:window-x="0"
     inkscape:window-y="30"
     inkscape:window-maximized="1"
     inkscape:current-layer="svg2" />
  <path
     id="path4156"
     style="fill:#CDDC39"
     d="M 1.27675647831893e-15,43.5 C 1.27675647831893e-15,41.0175 2.017499999999996,39 4.5,39 c 1.96500000000003,0 3,-1.7325 3,-3 1.829999999999982,1.38000000000001 3,3.74249999999999 3,6 0,3.315 -2.685000000000029,6 -6,6 C 2.017499999999996,48 0,45.9825 0,43.5 Z M 47.41,5.26 42.74,0.5899999999999997 C 41.96,-0.19 40.69,-0.19 39.91,0.5899999999999997 L 33.66,6.84 29.83,3 27,5.83 29.84,8.669999999999998 12,26.5 12,36 21.5,36 39.34000000000001,18.16 42.17,21 45,18.17 41.16,14.33 47.41,8.08 C 48.2,7.300000000000001 48.2,6.04 47.41,5.260000000000002 Z M 19.84,32 16,28.16 32.13,12.03 35.97,15.87 19.84,32 Z" />
</svg>

<svg xmlns="http://www.w3.org/2000/svg" fill="#CDDC39" viewBox="0 0 48 48"><path d="m0 43.5c0-2.483 2.02-4.5 4.5-4.5 1.965 0 3-1.733 3-3 1.83 1.38 3 3.742 3 6 0 3.315-2.685 6-6 6-2.483 0-4.5-2.02-4.5-4.5m47.41-38.24l-4.67-4.67c-.78-.78-2.05-.78-2.83 0l-6.25 6.25-3.83-3.84-2.83 2.83 2.84 2.84-17.84 17.83v9.5h9.5l17.84-17.84 2.83 2.84 2.83-2.83-3.84-3.84 6.25-6.25c.79-.78.79-2.04 0-2.82m-27.57 26.74l-3.84-3.84 16.13-16.13 3.84 3.84-16.13 16.13" fill="#CDDC39"/></svg>
